X:1
T:Title
%%score 1 2 3 4
L:1/8
M:4/4
K:C
V:1 treble nm="Part_1"
V:2 treble nm="Part_2"
V:3 bass nm="Part_3"
V:4 bass nm="Part_4"
V:1
 z ddd de/d/ c>B | B2 z/ G/A/B/ A4 | G4 z c A>B | cG c3 d/c/ B>B | ceee ef/e/ d>c | %5
 c2 z/ c/d/e/ d4 | c4 z4 | z BBB ee/e/ e>d | dd z e c2 ce | f2 e>d d3 c | c8 | z8 | z4 z d dc/B/ | %13
 e>e d>c B2 c/B/c/d/ | B3 A A4 | z8 | z2 A2 BBBB | ^cccc d>d d2 | z4 z Adc | B2 B2 z GcB | %20
 A2 A2 z dgf | e2 e2 z Adc | B2 B2 z EAG | ^F2 F2 d>cd/c/B/A/ | G2 AB A4 | G4 z2 B2 | %26
 z BBB BB/B/ BB | ^c2 c2 z2 ef | g2 f2 e3 d | d4 z2 AA | B3 B B4 | B>c B>A ^G2 G2 | z4 d>e d>c | %33
 B>A G^F E4 | D4 DD/D/ ^FF/F/ | A>A A>A ^FD z2 | GG/G/ BB/B/ d>d d>d | BG z2 z d d/e/c/d/ | %38
 BG z d eGAB | A3 G G4 | z8 | z8 | z8 | z2 z e c2 cB | c2 c2 c2 cd | e2 e2 z2 AA | B>B B2 z2 BB | %47
 B2 cd e4- | e4 ed/e/ f2- | f2 ed d4 | c8 | z8 | z8 | z8 | z8 | z4 cccc | ^F2 F2 z G GA/B/ | %57
 c2 c2 z A AB/c/ | d2 d2 dddd | G2 G2 z ^c cd/e/ | ^f2 f2 dddd | GG/G/ GA/B/ c2 c2 | %62
 z A AB/c/ d/c/d/c/ d/c/B/A/ | G2 AB A4 | G8 | z2 e4 ed | e4 e4 | z ^c/d/ e4 dc | B3 A A4 | %69
 z2 ^fe d2 ef | e4 d4 | z2 dd de/d/ cd/c/ | BGAB A3 G | G4 z cAB | cG c3 d/c/ B2 | %75
 c2 ee ef/e/ de/d/ | ccde d3 d | c3 c d3 d | e2 f2 e4 | d8 | z2 dd d2 dd | dc BA G2 G2 | %82
 z G/A/ BG d2 d2- | d e/d/ ^c2 d4 | z B/c/ dB e4 | d4 z4 | z B/c/ dG A4 | G8 |] %88
V:2
 z8 | z8 | z8 | z8 | z ccc cd/c/ B>A | A2 z/ A/B/c/ B4 | AEEE AA/A/ A>^G | ^GGGG cc/c/ c>B | %8
 BB z c A2 Bc | d2 cc c3 B | c8 | z8 | z4 z B BA/G/ | c>c B>A ^G2 A2 | A3 ^G A4 | z4 z2 E2 | %16
 ^FFFF ^GGGG | A>A A2 z4 | z GcB A2 A2 | z2 D2 EEEE | ^FFFF G>G G2 | z Gdc A2 A2 | z Bed ^c2 c2 | %23
 z4 B>AB/A/G/F/ | E2 ^FG G2 (F2 | G4) z2 G2 | z ^GGG GG/G/ GG | A2 A2 z2 ^cd | e2 d2 d3 ^c | %29
 d4 z2 ^FF | ^D3 D D4 | z8 | A>B A>G ^F2 FF | G^FED D2 (^C2 | D4) z2 DD/D/ | ^FF/F/ A>A A>A FD | %36
 z2 GG/G/ BB/B/ d>d | d>d BG z B B/c/A/B/ | GD z G E2 ^FG | G3 ^F G4 | z8 | z8 | z8 | %43
 z2 z c A2 A^G | A2 A2 A2 AB | c2 c2 z2 ^FF | ^G>G G2 z4 | z4 z2 GG | G2 AA c2- c/B/c/A/ | %49
 B2 cc c2 B2 | c8 | z8 | z8 | z8 | z8 | z8 | dddd G2 G2 | eeee A2 A2 | z ^F FG/A/ B2 B2 | %59
 eeee AA/A/ AB/^c/ | d2 d2 BBBB | EE/E/ EF/G/ A2 A2 | z ^F FG/A/ B/A/B/A/ B/A/G/F/ | %63
 E2 ^FG (G2 F2) | G8 | z2 B4 BA | B4 B4 | z A/B/ ^c4 BA | A3 ^G A4 | z2 dc B2 ^cd | d2 ^c2 d4 | %71
 z8 | z8 | z8 | z8 | z2 cc cd/c/ Bc/B/ | AABc B3 B | A3 A B3 B | ^c2 d2 d2 c2 | d8 | z2 BB B2 BB | %81
 BA GF E2 E2 | z4 z D/E/ ^FD | G4 ^F4 | z G/A/ BG c4 | B4 z D/E/ ^FD | G6 ^F2 | G8 |] %88
V:3
 z8 | z8 | z G,G,G, G,A,/G,/ F,>E, | E,2 z/ C,/D,/E,/ D,4 | C,4 z A,^F,^G, | %5
 A,A,, A,3 B,/A,/ ^G,>G, | A,4 z4 | z8 | z8 | z8 | z4 z C,E,C, | G,2 G,2 C,>B,, B,,>A,, | %12
 A,,4 G,,4 | z8 | z4 z2 A,,2 | B,,B,,B,,B,, ^C,C,C,C, | D,>D, D,2 z4 | z4 z D,G,F, | E,2 E,2 z4 | %19
 z8 | z A,,D,C, B,,2 B,,2 | z2 E,2 ^F,F,F,F, | ^G,G,G,G, A,>A, A,2 | z A,,D,C, B,,2 B,,2 | %24
 C,2 A,,G,, D,4 | G,,4 z2 G,2 | z E,E,E, E,E,/E,/ E,E, | A,,2 A,,2 z2 A,A, | G,2 D,2 A,,3 A,, | %29
 D,4 z2 D,D, | B,,3 B,, B,,4 | z4 E,>F, E,>D, | ^C,2 C,2 z2 D,2 | G,,A,,B,,G,, A,,4 | D,8 | z8 | %36
 z8 | z8 | z8 | z4 z2 G,G, | G,G,/G,/ E,/F,/G,/E,/ F,E,/F,/ D,/E,/F,/D,/ | E,>D, C,2 F,2 G,A, | %42
 G,3 G, C,4 | z8 | z8 | z8 | z8 | z8 | z8 | z8 | z2 C,2 C,>D, E,>C, | (G,2 G,2 G,>A, B,>G, | %52
 C)B,/C/ A,G,/A,/ ^F,E,/F,/ D,E,/F,/ | G,F,/G,/ E,D,/E,/ C,2 C,B,, | D,4 G,,4 | G,G,G,G, C,2 C,2 | %56
 z8 | z C, C,D,/E,/ F,2 F,2 | D,D,D,D, G,,G,,/G,,/ G,,A,,/B,,/ | C,2 C,2 A,A,A,A, | %60
 D,D,/D,/ D,E,/F,/ G,G,/G,/ G,A,/B,/ | C2 C2 z A,, A,,B,,/C,/ | D,2 D,2 z B,, B,,C,/D,/ | %63
 E,2 C,B,, D,4 | G,,8 | z2 ^G,4 G,^F, | ^G,4 G,4 | z2 ^C,4 D,D, | E,3 E, A,,2 A,G, | %69
 ^F,>F, F,2 G,F,E,>D, | A,4 D,4 | z8 | z8 | z2 G,G, G,A,/G,/ F,G,/F,/ | E,C,D,E, D,3 C, | %75
 C,4 z A,^F,^G, | A,A,, A,3 B,/A,/ ^G,2 | A,3 A, G,3 G, | E,2 D,2 A,4 | D,2 D,D, D,2 D,D, | %80
 D,C, B,,A,, G,,2 G,,2 | z4 z C,/D,/ E,C, | G,2 G,2 z4 | z4 z D,/E,/ ^F,D, | G,2 G,2 C,D,E,F, | %85
 G, G,,/A,,/ B,,G,, D,2 D,2 | B,,3 E, D,4 | G,,8 |] %88
V:4
 G,,4 G,2 A,2 | G,2 E,2 C,2 D,2 | G,,4 C,2 D,2 | C,2 A,,2 F,,2 G,,2 | C,4 A,,A,^F,^G, | %5
 A,4 A,B, ^G,2 | A,,4 F,4 | E,4 C,4 | G,2 E,2 F,2 E,2 | D,2 E,F, G,4 | C,8 | G,4 C,2 B,,2 | %12
 A,,4 G,,2 G,2 | C,2 D,2 E,2 C,2 | D,2 E,2 A,,4 | B,,4 ^C,4 | D,4 B,,2 E,2 | A,,4 D,2 G,F, | %18
 E,4 ^F,4 | G,2 G,,2 C,4 | D,A,,D,C, B,,4 | E,4 ^F,4 | ^G,4 A,,4 | D,A,,D,C, B,,4 | %24
 C,2 A,,G,, D,4 | G,,4 z2 G,2 | E,4 E,4 | A,,4 A,4 | G,2 D,2 A,,4 | D,4 D,4 | B,,4 B,,4 | %31
 B,,4 E,>F,E,>D, | ^C,4 D,4 | G,,A,,B,,G,, A,,4 | D,8 | D,8 | G,,8 | G,,8 | G,,4 C,4 | %39
 D,4 G,,2 G,2 | G,2 E,2 F,2 D,2 | E,2 C,2 F,2 G,A, | G,4 C,4 | A,,8 | A,,8 | A,,4 A,,4 | E,4 E,4 | %47
 E,2 D,2 C,4 | C,4 A,,2 F,,2 | G,,2 E,,2 G,,4 | C,4 C,4 | G,4 G,4 | C2 A,2 ^F,2 D,2 | %53
 G,2 E,2 C,3 B,, | D,4 G,,4 | G,4 C,4 | D,4 E,4 | C,4 F,4 | D,4 G,,4 | C,4 A,4 | D,4 G,2 G,,2 | %61
 C,4 A,,4 | D,4 B,,4 | E,2 C,B,, D,4 | G,,8 | ^G,6 G,^F, | ^G,4 G,4 | ^C,6 D,2 | E,4 A,,2 A,G, | %69
 ^F,4 G,F,E,D, | A,4 D,4 | G,,4 G,2 A,2 | G,2 E,2 D,2 E,2 | G,,4 C,2 D,2 | C,2 A,,2 F,,2 G,,2 | %75
 C,4 A,,A,^F,^G, | A,4 A,B,/A,/ ^G,2 | A,4 G,4 | E,2 D,2 A,,4 | D,4 D,4 | D,C,B,,A,, G,,4 | %81
 G,,4 C,4 | G,4 ^F,4 | E,4 D,4 | G,4 C,D,E,F, | G,2 G,,2 D,4 | B,,3 E, D,4 | G,,8 |] %88

